X: 1
T: Turkey in the Straw
%R: reels
F: http://ancients.sudburymuster.org/mus/med/pdf/clemC0.pdf
Z: 2020 John Chambers <jc:trillian.mit.edu>
M: 2/4
L: 1/16
K: A
% - - - - - - - - - -
(cB) |\
AGAB A2(CD) | EFEC E2(AB) |1,3 c2c2 cBAB | c2B2 B2 :|2,4 ce2f ecAB | c2B2 A2 :|
|: z2 |\
ce2c e2e2 | ce2c e2e2 | df2d f2f2 | df2d f2f2 |\
a2a2 e2e2 | cecA B2d2 | ce2f ecAB | c2B2 A2 :|
